apps/portfolio/src/portfolio/static/assets/icons/analysis_production_processes.svg

<svg
  width="800"
  height="800"
  viewBox="0 0 512 512"
  fill="#ffffff"
  id="Layer_1"
  xmlns="http://www.w3.org/2000/svg"
  space="preserve"
  version="1.1"
>
  <style
    type="text/css"
  >
    .st0{fill:#FFFFFF;}
  </style>
  <path
    d="m430.8 90.6 h-171.3 v-16.2 c0-1.9-1.6-3.5-3.5-3.5 s-3.5 1.6-3.5 3.5 v16.2 h-171.3 v45.1 h8.2 l-0.2 212.8 h107.1
      l-17.4 92.6 h17.3 l27.6-92.6 h18.9 l4.7 61.5 h16.9 l4.7-61.5 h19 l27.6 92.6 h17.3 l-17.4-92.6 h107.1 v-212.8 h8.2 v-45.1
      z m-239.8 343.5 h-3.6 l16.1-85.6 h13 l-25.5 85.6 z m66.9-31 h-4 l-4.2-54.5 h12.3 l-4.1 54.5 z m66.6 31 h-3.6 l-25.5-85.6
      h13 l16.1 85.6 z m84.1-99.6 h-305.4 l0.2-198.8 h305.2 v198.8 z m-313.4-229.9 h321.6 v17.1 h-321.6 v-17.1 z"
    class="st0"
  />
  <path
    d="m376 164.9h12.6c1.9 0 3.5-1.6 3.5-3.5s-1.6-3.5-3.5-3.5h-12.6c-1.9 0-3.5 1.6-3.5 3.5s1.6 3.5 3.5 3.5z"
    class="st0"
  />
  <path
    d="m269.1 164.9h89c1.9 0 3.5-1.6 3.5-3.5s-1.6-3.5-3.5-3.5h-89c-1.9 0-3.5 1.6-3.5 3.5s1.6 3.5 3.5 3.5z"
    class="st0"
  />
  <path
    d="m269.1 177.2h119.5c1.9 0 3.5-1.6 3.5-3.5s-1.6-3.5-3.5-3.5h-119.5c-1.9 0-3.5 1.6-3.5 3.5s1.6 3.5 3.5 3.5z"
    class="st0"
  />
  <path
    d="m388.6 182.5h-69.4c-1.9 0-3.5 1.6-3.5 3.5s1.6 3.5 3.5 3.5h69.4c1.9 0 3.5-1.6 3.5-3.5s-1.6-3.5-3.5-3.5z"
    class="st0"
  />
  <path
    d="m269.1 189.5h36.4c1.9 0 3.5-1.6 3.5-3.5s-1.6-3.5-3.5-3.5h-36.4c-1.9 0-3.5 1.6-3.5 3.5s1.6 3.5 3.5 3.5z"
    class="st0"
  />
  <path
    d="m269.1 201.8h119.5c1.9 0 3.5-1.6 3.5-3.5s-1.6-3.5-3.5-3.5h-119.5c-1.9 0-3.5 1.6-3.5 3.5s1.6 3.5 3.5 3.5z"
    class="st0"
  />
  <path
    d="m388.6 207.1h-14.6c-1.9 0-3.5 1.6-3.5 3.5s1.6 3.5 3.5 3.5h14.6c1.9 0 3.5-1.6 3.5-3.5s-1.6-3.5-3.5-3.5z"
    class="st0"
  />
  <path
    d="m269.1 214.1h87.4c1.9 0 3.5-1.6 3.5-3.5s-1.6-3.5-3.5-3.5h-87.4c-1.9 0-3.5 1.6-3.5 3.5s1.6 3.5 3.5 3.5z"
    class="st0"
  />
  <path
    d="m269.1 226.3h119.5c1.9 0 3.5-1.6 3.5-3.5s-1.6-3.5-3.5-3.5h-119.5c-1.9 0-3.5 1.6-3.5 3.5s1.6 3.5 3.5 3.5z"
    class="st0"
  />
  <path
    d="m269.1 238.6h101.5c1.9 0 3.5-1.6 3.5-3.5s-1.6-3.5-3.5-3.5h-101.5c-1.9 0-3.5 1.6-3.5 3.5s1.6 3.5 3.5 3.5z"
    class="st0"
  />
  <path
    d="m392.1 253.7h-126.5v54.5h126.5v-54.5zm-7 47.5h-112.5v-40.5h112.5v40.5z"
    class="st0"
  />
  <path
    d="m179.1 290.2 c29.9 0 54.2-24.3 54.2-54.2 v-3.5 h-50.3 l5.5-50-3.5-0.5
      c-2-0.2-4-0.3-5.9-0.3-29.9 0-54.2 24.3-54.2 54.2-0.1 29.9 24.3 54.3 54.2 54.3 z m0-101.5 h1.7 l-5.6 50.7 h51
      c-1.8 24.4-22.2 43.7-47.1 43.7-26 0-47.2-21.2-47.2-47.2-0.1-26 21.1-47.2 47.2-47.2 z"
    class="st0"
  />
  <path
    d="m244.3 218.1-0.7-3.4 c-2-9.5-6.6-18.2-13.1-25.3-6.6-7.1-14.9-12.3-24.2-15.1 l-3.3-1-17.4 57.6 58.7-12.8 z m-36.8-36.1
      c6.7 2.6 12.8 6.7 17.7 12.1 4.9 5.3 8.5 11.7 10.6 18.7 l-40.2 8.7 11.9-39.5 z"
    class="st0"
  />
</svg>

<?xml version="1.0" ?>

<svg width="800px" height="800px" viewBox="0 0 512 512" id="Layer_1" version="1.1" xml:space="preserve" xmlns="http://www.w3.org/2000/svg" xmlns:xlink="http://www.w3.org/1999/xlink">
<style type="text/css">
	.st0{fill:#232020;}
</style>
<g>
<path class="st0" d="M430.8,90.6H259.5V74.4c0-1.9-1.6-3.5-3.5-3.5s-3.5,1.6-3.5,3.5v16.2H81.2v45.1h8.2l-0.2,212.8h107.1   l-17.4,92.6h17.3l27.6-92.6h18.9l4.7,61.5h16.9l4.7-61.5H288l27.6,92.6h17.3l-17.4-92.6h107.1V135.7h8.2V90.6z M191,434.1h-3.6   l16.1-85.6h13L191,434.1z M257.9,403.1h-4l-4.2-54.5h12.3L257.9,403.1z M324.5,434.1h-3.6l-25.5-85.6h13L324.5,434.1z M408.6,334.5   H103.2l0.2-198.8h305.2V334.5z M95.2,104.6h321.6v17.1H95.2V104.6z"/>
<path class="st0" d="M376,164.9h12.6c1.9,0,3.5-1.6,3.5-3.5s-1.6-3.5-3.5-3.5H376c-1.9,0-3.5,1.6-3.5,3.5S374.1,164.9,376,164.9z"/>
<path class="st0" d="M269.1,164.9h89c1.9,0,3.5-1.6,3.5-3.5s-1.6-3.5-3.5-3.5h-89c-1.9,0-3.5,1.6-3.5,3.5S267.2,164.9,269.1,164.9z   "/>
<path class="st0" d="M269.1,177.2h119.5c1.9,0,3.5-1.6,3.5-3.5s-1.6-3.5-3.5-3.5H269.1c-1.9,0-3.5,1.6-3.5,3.5   S267.2,177.2,269.1,177.2z"/>
<path class="st0" d="M388.6,182.5h-69.4c-1.9,0-3.5,1.6-3.5,3.5s1.6,3.5,3.5,3.5h69.4c1.9,0,3.5-1.6,3.5-3.5   S390.5,182.5,388.6,182.5z"/>
<path class="st0" d="M269.1,189.5h36.4c1.9,0,3.5-1.6,3.5-3.5s-1.6-3.5-3.5-3.5h-36.4c-1.9,0-3.5,1.6-3.5,3.5   S267.2,189.5,269.1,189.5z"/>
<path class="st0" d="M269.1,201.8h119.5c1.9,0,3.5-1.6,3.5-3.5s-1.6-3.5-3.5-3.5H269.1c-1.9,0-3.5,1.6-3.5,3.5   S267.2,201.8,269.1,201.8z"/>
<path class="st0" d="M388.6,207.1h-14.6c-1.9,0-3.5,1.6-3.5,3.5s1.6,3.5,3.5,3.5h14.6c1.9,0,3.5-1.6,3.5-3.5   S390.5,207.1,388.6,207.1z"/>
<path class="st0" d="M269.1,214.1h87.4c1.9,0,3.5-1.6,3.5-3.5s-1.6-3.5-3.5-3.5h-87.4c-1.9,0-3.5,1.6-3.5,3.5   S267.2,214.1,269.1,214.1z"/>
<path class="st0" d="M269.1,226.3h119.5c1.9,0,3.5-1.6,3.5-3.5s-1.6-3.5-3.5-3.5H269.1c-1.9,0-3.5,1.6-3.5,3.5   S267.2,226.3,269.1,226.3z"/>
<path class="st0" d="M269.1,238.6h101.5c1.9,0,3.5-1.6,3.5-3.5s-1.6-3.5-3.5-3.5H269.1c-1.9,0-3.5,1.6-3.5,3.5   S267.2,238.6,269.1,238.6z"/>
<path class="st0" d="M392.1,253.7H265.6v54.5h126.5V253.7z M385.1,301.2H272.6v-40.5h112.5V301.2z"/>
<path class="st0" d="M179.1,290.2c29.9,0,54.2-24.3,54.2-54.2v-3.5H183l5.5-50L185,182c-2-0.2-4-0.3-5.9-0.3   c-29.9,0-54.2,24.3-54.2,54.2C124.8,265.8,149.2,290.2,179.1,290.2z M179.1,188.7c0.6,0,1.1,0,1.7,0l-5.6,50.7h51   c-1.8,24.4-22.2,43.7-47.1,43.7c-26,0-47.2-21.2-47.2-47.2C131.8,209.9,153,188.7,179.1,188.7z"/>
<path class="st0" d="M244.3,218.1l-0.7-3.4c-2-9.5-6.6-18.2-13.1-25.3c-6.6-7.1-14.9-12.3-24.2-15.1l-3.3-1l-17.4,57.6L244.3,218.1   z M207.5,182c6.7,2.6,12.8,6.7,17.7,12.1c4.9,5.3,8.5,11.7,10.6,18.7l-40.2,8.7L207.5,182z"/>
</g>
</svg>
